X:1
T:Title
%%score { ( 1 4 ) | ( 2 3 ) }
L:1/8
Q:1/4=90
M:6/8
K:Db
V:1 treble nm="Grand Piano"
V:4 treble 
V:2 bass 
V:3 bass 
V:1
 D2 E F2 _F | F2 [GB] [FA]3 | [Fd]2 [Fc] [FB]2 F | A2 =G _G3 | [CE]2 [DF] [EG]2 [=DF] | %5
w: Mrs.~C.~H.~Morris * * *|||||
 [EG]2 [Gc] [Gc]3 | e2 c G2 B | [GB]2 [FA] F3 | D2 E F2 [=DE] | [DF]2 [GB] [FA]3 | %10
w: |||||
 [Fd]2 [Fc] [FB]2 F | A2 E E3 | A2 A B2 B | c2 d e3 | [=Gf]2 [Ge] [Gd]2 G | B2 A A3 | %16
w: ||||||
 [Fd]3 .[DFc]3 | [FB]3 .[DF]3 | [FA]Bc [Fd]cB | [Gc]3 .[CEG]3 | [ce]3 [Bd]3 | [Ac]3 [GB]3 | %22
w: ||||||
 [GB]=AB [_Ac]2 B | [FA]6 | [Fd]3 .[DFc]3 | [FB]3 .[DF]3 | [Fd]cd [Ae]dc | [GB]3 [GB]3 | BBB d3 | %29
w: |||||||
 A2 A d3 | dAB F2 [CE] |[M:5/8] [A,D]-[A,D]- [A,D]3 |] %32
w: |||
V:2
 [D,F,]2 [D,G,D] [D,A,D]2 [D,=G,D] | [D,A,D]2 [D,D] [D,D]3 | [D,A,]2 [D,A,] [D,D]2 [D,A,D] | %3
 [E,A,C]2 [E,A,C] [E,A,C]3 | [A,,A,]2 [A,,A,] [A,,A,]2 [A,,A,] | [A,,A,]2 [A,,A,] [A,,A,]3 | %6
 [A,CG]2 [A,G] [A,CE]2 [A,CG] | [D,D]2 [D,D] [D,A,D]3 | [D,F,]2 [D,G,D] [D,A,D]2 [D,=G,] | %9
 [D,A,]2 [D,D] [D,D]3 | [D,A,]2 [D,A,] [D,D]2 [=D,_C] | [E,CE]2 [E,A,C] [E,A,C]3 | %12
 [F,A,C]2 [F,A,C] [E,=G,E]2 [E,G,E] | [A,E]2 [A,B,E] [A,CE]3 | [E,D]2 [E,D] [E,B,]2 [E,DE] | %15
 [A,DE]2 [A,CE] [A,CE]3 | D,2 A, F,2 A, | D,2 A, F,2 A, | z[K:treble] FF[K:bass] z[K:treble] FF | %19
 E,2 A, G,2 A, | A,,2 E, A,2 E, | A,,2 E, A,2 E, | z[K:treble] FG[K:bass] [A,,A,]2 G | %23
 D,2 A, F,2 A, | D,2 A, F,2 A, | D,2 A, F,2 A, | z[K:treble] FF z AA | G,2 B, D2 B, | %28
 [=G,D_F][K:treble][G,DF][G,DF] [G,B,F]3 | [A,DF]2 [A,DF] [=G,D_F]3 | %30
 [A,DF][A,DF][A,DG][K:bass] [A,D]2 [A,,A,] |[M:5/8] [D,F,]-[D,F,]- [D,F,]3 |] %32
V:3
 x6 | x6 | x6 | x6 | x6 | x6 | x6 | x6 | x6 | x6 | x6 | x6 | x6 | x6 | x6 | x6 | x6 | x6 | %18
 .[D,A,]3[K:treble][K:bass] .[D,A,]3[K:treble] | x6 | x6 | x6 | .[G,,A,]3[K:treble][K:bass] z3 | %23
 x6 | x6 | x6 | .[D,A,]3[K:treble] .[F,D]3 | x6 | x[K:treble] x5 | x6 | x3[K:bass] x3 | %31
[M:5/8] x5 |] %32
V:4
 x6 | x6 | x6 | x6 | x6 | x6 | x6 | x6 | x6 | x6 | x6 | x6 | x6 | x6 | x6 | x6 | x6 | x6 | x6 | %19
 x6 | x6 | x6 | x6 | z3 .D3 | x6 | x6 | x6 | x6 | x6 | x6 | x6 |[M:5/8] x5 |] %32

